src/22/mimetypes/application-vnd.ms-publisher.svg

<?xml version="1.0" encoding="UTF-8" standalone="no"?>
<!-- Created with Inkscape (http://www.inkscape.org/) -->

<svg
   xmlns:dc="http://purl.org/dc/elements/1.1/"
   xmlns:cc="http://creativecommons.org/ns#"
   xmlns:rdf="http://www.w3.org/1999/02/22-rdf-syntax-ns#"
   xmlns:svg="http://www.w3.org/2000/svg"
   xmlns="http://www.w3.org/2000/svg"
   xmlns:sodipodi="http://sodipodi.sourceforge.net/DTD/sodipodi-0.dtd"
   xmlns:inkscape="http://www.inkscape.org/namespaces/inkscape"
   width="22"
   version="1.1"
   height="22"
   id="svg2"
   inkscape:version="0.91 r13725"
   sodipodi:docname="application-vnd.ms-publisher.svg">
  <sodipodi:namedview
     pagecolor="#ffffff"
     bordercolor="#666666"
     borderopacity="1"
     objecttolerance="10"
     gridtolerance="10"
     guidetolerance="10"
     inkscape:pageopacity="0"
     inkscape:pageshadow="2"
     inkscape:window-width="1360"
     inkscape:window-height="708"
     id="namedview14"
     showgrid="true"
     inkscape:zoom="32.375"
     inkscape:cx="10.431699"
     inkscape:cy="10.91069"
     inkscape:window-x="0"
     inkscape:window-y="0"
     inkscape:window-maximized="1"
     inkscape:current-layer="layer1"
     inkscape:object-nodes="true">
    <inkscape:grid
       type="xygrid"
       id="grid4151" />
  </sodipodi:namedview>
  <defs
     id="defs3871" />
  <metadata
     id="metadata3874">
    <rdf:RDF>
      <cc:Work
         rdf:about="">
        <dc:format>image/svg+xml</dc:format>
        <dc:type
           rdf:resource="http://purl.org/dc/dcmitype/StillImage" />
      </cc:Work>
    </rdf:RDF>
  </metadata>
  <g
     inkscape:label="Capa 1"
     inkscape:groupmode="layer"
     id="layer1"
     transform="matrix(1 0 0 1 -326 -534.3622)">
    <path
       style="opacity:1;fill:#4bc94b;fill-opacity:1;stroke:none;stroke-width:2;stroke-miterlimit:4;stroke-dasharray:none;stroke-opacity:1"
       d="M 7 3 C 6.44599 3 6 3.44599 6 4 L 6 6 L 4 6 C 3.4459904 6 3 6.4459904 3 7 L 3 18 C 3 18.55401 3.4459904 19 4 19 L 15 19 C 15.55401 19 16 18.55401 16 18 L 16 16 L 18 16 C 18.55401 16 19 15.55401 19 15 L 19 4 C 19 3.44599 18.55401 3 18 3 L 7 3 z M 7 4 L 18 4 L 18 15 L 16 15 L 16 7 C 16 6.4459904 15.55401 6 15 6 C 12 6 7 5.6746762 7 4 z M 4 7 L 15 7 L 15 18 L 4 18 L 4 7 z M 5 8 L 5 10 L 14 10 L 14 8 L 5 8 z M 5 12 L 5 13 L 14 13 L 14 12 L 5 12 z M 5 14 L 5 15 L 14 15 L 14 14 L 5 14 z M 5 16 L 5 17 L 14 17 L 14 16 L 5 16 z "
       transform="translate(326,534.3622)"
       id="rect4153" />
  </g>
</svg>

<svg xmlns="http://www.w3.org/2000/svg" width="22" height="22"><path d="M7 3c-.554 0-1 .446-1 1v2H4c-.554 0-1 .446-1 1v11c0 .554.446 1 1 1h11c.554 0 1-.446 1-1v-2h2c.554 0 1-.446 1-1V4c0-.554-.446-1-1-1H7zm0 1h11v11h-2V7c0-.554-.446-1-1-1-3 0-8-.325-8-2zM4 7h11v11H4V7zm1 1v2h9V8H5zm0 4v1h9v-1H5zm0 2v1h9v-1H5zm0 2v1h9v-1H5z" fill="#4bc94b"/></svg>
